TProfile/hist.svg

<svg xmlns="http://www.w3.org/2000/svg" viewBox="0 0 1200 800" preserveAspectRatio="none" width="1200" height="800">
 <path d="M0,0H1200V800H0Z" style="fill: white;"></path>
 <g>
  <g transform="translate(120,80)">
   <path d="M0,0H960V640H0Z" style="fill: white; stroke: black; stroke-width: 1;"></path>
   <svg x="0" y="0" overflow="hidden" width="960" height="640" viewBox="0 0 960 640">
    <g>
     <path d="M0,640h19v-563h10v563h38v-465h10v23h9v-10h10v36h10v17h9v32h10v3h9v17h10v-1h10v32h9v11h10v23h9v1h10v33h10v7h9v11h10v15h9v17h10v11h10v11h9v16h10v11h9v14h10v2h19v15h10v11h9v8h10v9h10v8h9v5h19v12h10v3h10v5h9v2h10v6h19v12h10v-5h9v3h10v1h9v-3h10v3h10v-3h9v5h10v-7h9v1h10v-3h10v-3h9v-4h10v-5h9v-6h10v-2h10v-5h9v-9h19v-14h10v-3h10v-10h9v-10h10v-11h9v-3h10v-13h10v-10h9v-13h10v-12h9v-2h10v-22h10v-1h9v-24h10v-14h9v-13h10v-11h10v-22h9v-3h10v-45h9v-16h10v-7h10v17h9v-59h10v-50h9v23h10v-55h10v35h9v-22h10v1h9v468h48v-610h10" style="stroke-linejoin: miter; stroke: #00009a; stroke-width: 1; fill: none;"></path>
    </g>
   </svg>
   <g>
    <g transform="translate(0,640)">
     <path d="M0,0h960M0,-24v24m24,-12v12m24,-12v12m24,-12v12m24,-12v12m24,-24v24m24,-12v12m24,-12v12m24,-12v12m24,-12v12m24,-24v24m24,-12v12m24,-12v12m24,-12v12m24,-12v12m24,-24v24m24,-12v12m24,-12v12m24,-12v12m24,-12v12m24,-24v24m24,-12v12m24,-12v12m24,-12v12m24,-12v12m24,-24v24m24,-12v12m24,-12v12m24,-12v12m24,-12v12m24,-24v24m24,-12v12m24,-12v12m24,-12v12m24,-12v12m24,-24v24m24,-12v12m24,-12v12m24,-12v12m24,-12v12m24,-24v24" style="stroke: black; stroke-width: 1;"></path>
     <g font-family="Arial" font-size="28" space="preserve" fill="black" text-anchor="middle">
      <text dy=".8em" transform="translate(0,6)">
       -4
      </text>
      <text dy=".8em" transform="translate(120,6)">
       -3
      </text>
      <text dy=".8em" transform="translate(240,6)">
       -2
      </text>
      <text dy=".8em" transform="translate(360,6)">
       -1
      </text>
      <text dy=".8em" transform="translate(480,6)">
       0
      </text>
      <text dy=".8em" transform="translate(600,6)">
       1
      </text>
      <text dy=".8em" transform="translate(720,6)">
       2
      </text>
      <text dy=".8em" transform="translate(840,6)">
       3
      </text>
      <text dy=".8em" transform="translate(960,6)">
       4
      </text>
     </g>
    </g>
    <g>
     <path d="M0,0v640M36,640h-36m18,-19h-18m18,-20h-18m18,-19h-18m36,-19h-36m18,-20h-18m18,-19h-18m18,-19h-18m36,-20h-36m18,-19h-18m18,-20h-18m18,-19h-18m36,-19h-36m18,-20h-18m18,-19h-18m18,-19h-18m36,-20h-36m18,-19h-18m18,-19h-18m18,-20h-18m36,-19h-36m18,-19h-18m18,-20h-18m18,-19h-18m36,-20h-36m18,-19h-18m18,-19h-18m18,-20h-18m36,-19h-36m18,-19h-18m18,-20h-18m18,-19h-18m36,-19h-36m18,-20h-18" style="stroke: black; stroke-width: 1;"></path>
     <g font-family="Arial" font-size="28" space="preserve" fill="black" text-anchor="end">
      <text dy=".4em" transform="translate(-4,640)">
       0
      </text>
      <text dy=".4em" transform="translate(-4,563)">
       2
      </text>
      <text dy=".4em" transform="translate(-4,485)">
       4
      </text>
      <text dy=".4em" transform="translate(-4,408)">
       6
      </text>
      <text dy=".4em" transform="translate(-4,330)">
       8
      </text>
      <text dy=".4em" transform="translate(-4,253)">
       10
      </text>
      <text dy=".4em" transform="translate(-4,175)">
       12
      </text>
      <text dy=".4em" transform="translate(-4,98)">
       14
      </text>
      <text dy=".4em" transform="translate(-4,21)">
       16
      </text>
     </g>
    </g>
   </g>
  </g>
  <g transform="translate(120,4)" font-family="Arial" font-size="40" space="preserve">
   <text fill="black" text-anchor="middle" dy=".8em" transform="translate(480)">
    Profile of pz versus px
   </text>
  </g>
  <g transform="translate(936,52)" font-family="Arial" font-size="22" space="preserve" fill="black">
   <path d="M0,0H240V212H0Z" style="fill: white; stroke: black; stroke-width: 1;"></path>
   <text text-anchor="middle" dy=".4em" transform="translate(120,18)">
    hprof
   </text>
   <text text-anchor="start" dy=".4em" transform="translate(12,53)">
    Entries
   </text>
   <text text-anchor="end" dy=".4em" transform="translate(228,53)">
    24998
   </text>
   <text text-anchor="start" dy=".4em" transform="translate(12,88)">
    Mean
   </text>
   <text text-anchor="end" dy=".4em" transform="translate(228,88)">
    0.003129
   </text>
   <text text-anchor="start" dy=".4em" transform="translate(12,124)">
    Mean y
   </text>
   <text text-anchor="end" dy=".4em" transform="translate(228,124)">
    2.005
   </text>
   <text text-anchor="start" dy=".4em" transform="translate(12,159)">
    Std Dev
   </text>
   <text text-anchor="end" dy=".4em" transform="translate(228,159)">
    1.004
   </text>
   <text text-anchor="start" dy=".4em" transform="translate(12,194)">
    Std Dev y
   </text>
   <text text-anchor="end" dy=".4em" transform="translate(228,194)">
    2.008
   </text>
   <path d="M0,35h240" style="stroke: black; stroke-width: 1;"></path>
  </g>
 </g>
</svg>

<svg xmlns="http://www.w3.org/2000/svg" viewBox="0 0 1200 800" preserveAspectRatio="none" width="1200" height="800">
 <path d="M0,0H1200V800H0Z" style="fill: white;"></path>
 <g>
  <g transform="translate(120,80)">
   <path d="M0,0H960V640H0Z" style="fill: white; stroke: black; stroke-width: 1;"></path>
   <svg x="0" y="0" overflow="hidden" width="960" height="640" viewBox="0 0 960 640">
    <g>
     <path d="M0,640h19v-563h10v563h38v-465h10v23h9v-10h10v36h10v17h9v32h10v3h9v17h10v-1h10v32h9v11h10v23h9v1h10v33h10v7h9v11h10v15h9v17h10v11h10v11h9v16h10v11h9v14h10v2h19v15h10v11h9v8h10v9h10v8h9v5h19v12h10v3h10v5h9v2h10v6h19v12h10v-5h9v3h10v1h9v-3h10v3h10v-3h9v5h10v-7h9v1h10v-3h10v-3h9v-4h10v-5h9v-6h10v-2h10v-5h9v-9h19v-14h10v-3h10v-10h9v-10h10v-11h9v-3h10v-13h10v-10h9v-13h10v-12h9v-2h10v-22h10v-1h9v-24h10v-14h9v-13h10v-11h10v-22h9v-3h10v-45h9v-16h10v-7h10v17h9v-59h10v-50h9v23h10v-55h10v35h9v-22h10v1h9v468h48v-610h10" style="stroke-linejoin: miter; stroke: #00009a; stroke-width: 1; fill: none;"></path>
    </g>
   </svg>
   <g>
    <g transform="translate(0,640)">
     <path d="M0,0h960M0,-24V0M24,-12V0M48,-12V0M72,-12V0M96,-12V0M120,-24V0M144,-12V0M168,-12V0M192,-12V0M216,-12V0M240,-24V0M264,-12V0M288,-12V0M312,-12V0M336,-12V0M360,-24V0M384,-12V0M408,-12V0M432,-12V0M456,-12V0M480,-24V0M504,-12V0M528,-12V0M552,-12V0M576,-12V0M600,-24V0M624,-12V0M648,-12V0M672,-12V0M696,-12V0M720,-24V0M744,-12V0M768,-12V0M792,-12V0M816,-12V0M840,-24V0M864,-12V0M888,-12V0M912,-12V0M936,-12V0M960,-24V0" style="stroke: black; stroke-width: 1;"></path>
     <g font-family="Arial" font-size="28" space="preserve" fill="black" text-anchor="middle">
      <text dy=".8em" transform="translate(0,6)">
       -4
      </text>
      <text dy=".8em" transform="translate(120,6)">
       -3
      </text>
      <text dy=".8em" transform="translate(240,6)">
       -2
      </text>
      <text dy=".8em" transform="translate(360,6)">
       -1
      </text>
      <text dy=".8em" transform="translate(480,6)">
       0
      </text>
      <text dy=".8em" transform="translate(600,6)">
       1
      </text>
      <text dy=".8em" transform="translate(720,6)">
       2
      </text>
      <text dy=".8em" transform="translate(840,6)">
       3
      </text>
      <text dy=".8em" transform="translate(960,6)">
       4
      </text>
     </g>
    </g>
    <g>
     <path d="M0,0v640M36,640H0M18,621H0M18,601H0M18,582H0M36,563H0M18,543H0M18,524H0M18,505H0M36,485H0M18,466H0M18,446H0M18,427H0M36,408H0M18,388H0M18,369H0M18,350H0M36,330H0M18,311H0M18,292H0M18,272H0M36,253H0M18,234H0M18,214H0M18,195H0M36,175H0M18,156H0M18,137H0M18,117H0M36,98H0M18,79H0M18,59H0M18,40H0M36,21H0M18,1H0" style="stroke: black; stroke-width: 1;"></path>
     <g font-family="Arial" font-size="28" space="preserve" fill="black" text-anchor="end">
      <text dy=".4em" transform="translate(-4,640)">
       0
      </text>
      <text dy=".4em" transform="translate(-4,563)">
       2
      </text>
      <text dy=".4em" transform="translate(-4,485)">
       4
      </text>
      <text dy=".4em" transform="translate(-4,408)">
       6
      </text>
      <text dy=".4em" transform="translate(-4,330)">
       8
      </text>
      <text dy=".4em" transform="translate(-4,253)">
       10
      </text>
      <text dy=".4em" transform="translate(-4,175)">
       12
      </text>
      <text dy=".4em" transform="translate(-4,98)">
       14
      </text>
      <text dy=".4em" transform="translate(-4,21)">
       16
      </text>
     </g>
    </g>
   </g>
  </g>
  <g transform="translate(120,4)" font-family="Arial" font-size="40" space="preserve">
   <text fill="black" text-anchor="middle" dy=".8em" transform="translate(480)">
    Profile of pz versus px
   </text>
  </g>
  <g transform="translate(936,52)" font-family="Arial" font-size="22" space="preserve" fill="black">
   <path d="M0,0H240V212H0Z" style="fill: white; stroke: black; stroke-width: 1;"></path>
   <text text-anchor="middle" dy=".4em" transform="translate(120,18)">
    hprof
   </text>
   <text text-anchor="start" dy=".4em" transform="translate(12,53)">
    Entries
   </text>
   <text text-anchor="end" dy=".4em" transform="translate(228,53)">
    24998
   </text>
   <text text-anchor="start" dy=".4em" transform="translate(12,88)">
    Mean
   </text>
   <text text-anchor="end" dy=".4em" transform="translate(228,88)">
    0.003129
   </text>
   <text text-anchor="start" dy=".4em" transform="translate(12,124)">
    Mean y
   </text>
   <text text-anchor="end" dy=".4em" transform="translate(228,124)">
    2.005
   </text>
   <text text-anchor="start" dy=".4em" transform="translate(12,159)">
    Std Dev
   </text>
   <text text-anchor="end" dy=".4em" transform="translate(228,159)">
    1.004
   </text>
   <text text-anchor="start" dy=".4em" transform="translate(12,194)">
    Std Dev y
   </text>
   <text text-anchor="end" dy=".4em" transform="translate(228,194)">
    2.008
   </text>
   <path d="M0,35h240" style="stroke: black; stroke-width: 1;"></path>
  </g>
 </g>
</svg>
